app/images/dist/logo.svg

<svg width="66" height="65" viewBox="0 0 66 65" fill="none" xmlns="http://www.w3.org/2000/svg">
<g clip-path="url(#clip0)">
<rect x="0.99707" width="65" height="65" fill="#222222"/>
<path d="M7.35778 31C7.35778 30.4824 7.53845 30.043 7.89978 29.6816C8.27087 29.3105 8.71521 29.125 9.23278 29.125H16.7328V27.25H7.35778V21.625H18.6078C18.6078 22.1523 18.4222 22.5967 18.0511 22.958C17.68 23.3193 17.2406 23.5 16.7328 23.5H9.23278V25.375H18.6078V31H7.35778ZM22.8078 31C22.2804 31 21.8361 30.8193 21.4748 30.458C21.1134 30.0869 20.9328 29.6426 20.9328 29.125H32.1828C32.1828 29.6523 31.9972 30.0967 31.6261 30.458C31.255 30.8193 30.8156 31 30.3078 31H22.8078ZM22.8078 27.25C22.2804 27.25 21.8361 27.0693 21.4748 26.708C21.1134 26.3369 20.9328 25.8926 20.9328 25.375H32.1828C32.1828 25.9023 31.9972 26.3467 31.6261 26.708C31.255 27.0693 30.8156 27.25 30.3078 27.25H22.8078ZM22.8078 23.5C22.2804 23.5 21.8361 23.3193 21.4748 22.958C21.1134 22.5869 20.9328 22.1426 20.9328 21.625H32.1828C32.1828 22.1523 31.9972 22.5967 31.6261 22.958C31.255 23.3193 30.8156 23.5 30.3078 23.5H22.8078ZM34.5078 31V29.125L37.3203 26.3125L36.3828 25.375L34.5078 23.5V21.625H36.3828V22.5625L40.1328 26.3125L36.3828 30.0625V31H34.5078ZM43.8828 31V30.0625L40.1328 26.3125L43.8828 22.5625V21.625H45.7578V23.5L43.8828 25.375H43.8681L42.9453 26.3125L45.7578 29.125V31H43.8828ZM52.7703 31V28.1875L48.0828 23.5V21.625H49.9578V22.5625L53.7078 26.3125L57.4578 22.5625V21.625H59.3328V23.5L54.6453 28.1875V31H52.7703ZM9.23278 48C8.70544 48 8.2611 47.8193 7.89978 47.458C7.53845 47.0869 7.35778 46.6426 7.35778 46.125V42.375H9.23278V45.1875C9.23278 45.4512 9.32067 45.6758 9.49646 45.8613C9.682 46.0371 9.90661 46.125 10.1703 46.125H18.6078C18.6078 46.6523 18.4222 47.0967 18.0511 47.458C17.68 47.8193 17.2406 48 16.7328 48H9.23278ZM7.35778 40.5V38.625H18.6078C18.6078 39.1523 18.4222 39.5967 18.0511 39.958C17.68 40.3193 17.2406 40.5 16.7328 40.5H7.35778ZM20.9328 48V42.375H32.1828V48H30.3078V44.25H22.8078V48H20.9328ZM22.8078 40.5C22.2804 40.5 21.8361 40.3193 21.4748 39.958C21.1134 39.5869 20.9328 39.1426 20.9328 38.625H32.1828C32.1828 39.1523 31.9972 39.5967 31.6261 39.958C31.255 40.3193 30.8156 40.5 30.3078 40.5H22.8078ZM34.5078 48V42.375H42.9453C43.1992 42.375 43.4189 42.2871 43.6045 42.1113C43.79 41.9258 43.8828 41.7012 43.8828 41.4375V40.5H36.3828C35.8554 40.5 35.4111 40.3193 35.0498 39.958C34.6884 39.5869 34.5078 39.1426 34.5078 38.625H45.7578V42.375C45.7578 42.9023 45.5722 43.3467 45.2011 43.708C44.83 44.0693 44.3906 44.25 43.8828 44.25H42.0078L45.7578 48H42.9453L39.1953 44.25H36.3828V48H34.5078ZM48.0828 48C48.0828 47.4824 48.2634 47.043 48.6248 46.6816C48.9959 46.3105 49.4402 46.125 49.9578 46.125H57.4578V44.25H48.0828V38.625H59.3328C59.3328 39.1523 59.1472 39.5967 58.7761 39.958C58.405 40.3193 57.9656 40.5 57.4578 40.5H49.9578V42.375H59.3328V48H48.0828Z" fill="white"/>
</g>
<defs>
<clipPath id="clip0">
<rect width="64.5938" height="65" fill="white" transform="translate(0.99707)"/>
</clipPath>
</defs>
</svg>

<svg width="66" height="65" fill="none" xmlns="http://www.w3.org/2000/svg"><g clip-path="url(#clip0)"><path fill="#222" d="M.997 0h65v65h-65z"/><path d="M7.358 31c0-.518.18-.957.542-1.318a1.819 1.819 0 011.333-.557h7.5V27.25H7.358v-5.625h11.25c0 .527-.186.972-.557 1.333-.371.361-.81.542-1.318.542h-7.5v1.875h9.375V31H7.358zm15.45 0c-.528 0-.972-.18-1.333-.542a1.843 1.843 0 01-.542-1.333h11.25c0 .527-.186.972-.557 1.333-.371.361-.81.542-1.318.542h-7.5zm0-3.75c-.528 0-.972-.18-1.333-.542a1.843 1.843 0 01-.542-1.333h11.25c0 .527-.186.972-.557 1.333-.371.361-.81.542-1.318.542h-7.5zm0-3.75c-.528 0-.972-.18-1.333-.542a1.843 1.843 0 01-.542-1.333h11.25c0 .527-.186.972-.557 1.333-.371.361-.81.542-1.318.542h-7.5zm11.7 7.5v-1.875l2.812-2.813-.937-.937-1.875-1.875v-1.875h1.875v.938l3.75 3.75-3.75 3.75V31h-1.875zm9.375 0v-.938l-3.75-3.75 3.75-3.75v-.937h1.875V23.5l-1.875 1.875h-.015l-.923.938 2.813 2.812V31h-1.875zm8.887 0v-2.813L48.083 23.5v-1.875h1.875v.938l3.75 3.75 3.75-3.75v-.938h1.875V23.5l-4.688 4.688V31H52.77zM9.233 48c-.528 0-.972-.18-1.333-.542a1.843 1.843 0 01-.542-1.333v-3.75h1.875v2.813c0 .263.088.488.263.673.186.176.41.264.674.264h8.438c0 .527-.186.972-.557 1.333-.371.361-.81.542-1.318.542h-7.5zm-1.875-7.5v-1.875h11.25c0 .527-.186.972-.557 1.333-.371.361-.81.542-1.318.542H7.358zM20.933 48v-5.625h11.25V48h-1.875v-3.75h-7.5V48h-1.875zm1.875-7.5c-.528 0-.972-.18-1.333-.542a1.843 1.843 0 01-.542-1.333h11.25c0 .527-.186.972-.557 1.333-.371.361-.81.542-1.318.542h-7.5zm11.7 7.5v-5.625h8.437a.926.926 0 00.938-.938V40.5h-7.5c-.528 0-.972-.18-1.333-.542a1.843 1.843 0 01-.542-1.333h11.25v3.75c0 .527-.186.972-.557 1.333-.371.361-.81.542-1.318.542h-1.875l3.75 3.75h-2.813l-3.75-3.75h-2.812V48h-1.875zm13.575 0c0-.518.18-.957.542-1.318a1.818 1.818 0 011.333-.557h7.5V44.25h-9.375v-5.625h11.25c0 .527-.186.972-.557 1.333-.371.361-.81.542-1.318.542h-7.5v1.875h9.375V48h-11.25z" fill="#fff"/></g><defs><clipPath id="clip0"><path fill="#fff" transform="translate(.997)" d="M0 0h64.594v65H0z"/></clipPath></defs></svg>
